img/icons/menu/cart.svg

<svg width="16" height="16" viewBox="0 0 16 16" fill="none" xmlns="http://www.w3.org/2000/svg">
<g clip-path="url(#clip0_0_392)">
<path fill-rule="evenodd" clip-rule="evenodd" d="M3.09068 6L3.5759 0.90519L3.66211 0H4.5714H11.4285H12.3378L12.424 0.905191L12.9093 6H14.5H15.6328L15.4922 7.12403L14.4922 15.124L14.3828 16H13.5H2.49997H1.61719L1.50769 15.124L0.507692 7.12403L0.367188 6H1.49997H3.09068ZM5.09973 6H10.9002L10.5193 2H5.48068L5.09973 6ZM3.38275 14L2.63275 8H13.3672L12.6172 14H3.38275ZM8.49997 9.5V12.5H10.5V9.5H8.49997ZM5.49997 12.5L5.49997 9.5H7.49997L7.49997 12.5H5.49997Z" fill="#242424"/>
</g>
<defs>
<clipPath id="clip0_0_392">
<rect width="16" height="16" fill="white"/>
</clipPath>
</defs>
</svg>

<svg xmlns="http://www.w3.org/2000/svg" width="16" height="16" fill="none"><g clip-path="url(#a)"><path fill="#242424" fill-rule="evenodd" d="m3 6 .6-5V0h8.8v1l.5 5h2.7l-.1 1.1-1 8-.1.9H1.6v-.9l-1-8L.3 6H3Zm2.1 0h5.8l-.4-4h-5L5 6Zm-1.7 8-.8-6h10.8l-.8 6H3.4Zm5.1-4.5v3h2v-3h-2Zm-3 3v-3h2v3h-2Z" clip-rule="evenodd"/></g><defs><clipPath id="a"><path fill="#fff" d="M0 0h16v16H0z"/></clipPath></defs></svg>
